!!!OTL: Liuliu Shange
!!!ARE: Asia, China,ÿAnhui
!! III, 534
!!!SCT: C2045
!!!YEM: Copyright 1995, estate of Helmut Schaffrath.
**kern
*ICvox
*Ivox
*M2/4
*k[b-]
*F:
{8cc
16cc
16a
8dd
16a
16g
=1
4f
4f}
=2
{4f
4f}
=3
{8cc
8cc
8dd
16cc
16a
=4
4cc
4cc}
=5
{4cc
4cc}
=6
{4eexxxxx
=7
8eexxxxxxx}
{8ff
16ff
16dd
8cc
8dd
=8
8cc
8cc
8a
8g
=9
8cc
8g
8cc
16a
16g
=10
8.f
16g
4f}
=11
{8.f
16g
4f}
==
!!!AGN: Haozi
!!!AMT: simple duple
!!!AIN: vox
!!!EED: Helmut Schaffrath
!!!EEV: 1.0
*-
